archdroid-icon-theme/Archdroid-LightGreen/apps/scalable/gnome-panel-force-quit.svg

<svg fill="#8BC34A" height="48" viewBox="0 0 48 48" width="48" xmlns="http://www.w3.org/2000/svg"><path d="m10 6c-.553085 0-1.079476.111704-1.556641.314453-1.429477.607391-2.423828 2.028632-2.423828 3.685547l-.019531 28c0 2.21 1.79 4 4 4h28c2.21 0 4-1.79 4-4v-28c0-2.21-1.79-4-4-4h-2-4-16-4zm0 10h28v22h-28zm7.617188 3-1.617188 1.617188 6.382813 6.382812-6.382813 6.382813 1.617188 1.617187 6.382812-6.382812 6.382813 6.382812 1.617187-1.617187-6.382812-6.382813 6.382812-6.382812-1.617187-1.617188-6.382813 6.382813z" fill="#8BC34A"/></svg>

<svg fill="#8BC34A" height="48" version="1.1" viewBox="0 0 48 48" width="48" xmlns="http://www.w3.org/2000/svg"><path d="M10 6C9.446915 6 8.920524 6.111704 8.443359 6.314453 7.013882 6.921844 6.019531 8.343085 6.019531 10L6 38C6 40.21 7.79 42 10 42L38 42C40.21 42 42 40.21 42 38L42 10C42 7.79 40.21 6 38 6L36 6 32 6 16 6 12 6 10 6zM10 16L38 16 38 38 10 38 10 16zM17.617188 19L16 20.617188 22.382813 27 16 33.382813 17.617188 35 24 28.617188 30.382813 35 32 33.382813 25.617188 27 32 20.617188 30.382813 19 24 25.382813 17.617188 19z" fill="#8BC34A"/></svg>
